X:1
T:Title
L:1/8
M:12/8
K:Ab
V:1 treble nm="Grand Piano"
V:1
 z6 z2[Q:1/4=140] C F2 A | c2 c c2 d c2 c A2 G | F6- F2 C =E2 G | B2 B B2 c d2 c B2 A | %4
 G6- G2 C F2 A | c2 c c2 d c2 c A2 G | F6- F2 c B2 A | G2 C =E2 G B2 c A2 G | F6- F2 F B2 c | %9
 d2 d d2 d e2 e d2 d | c6- c2 d c2 B | A2 G A2 B c2 B G2 A |[M:4/4] F6 z2 |[M:2/4] C F2 A | %14
[M:6/4] c6- c2 c A2 G | F6- F2 C =E2 G | B6- B2 c A2 G | F6- F2 F B2 c | d6- d2 e d2 c | %19
 c6- c2 d c2 B | G2 A F3- F2 z2 z2 |] %21

